!!!OTL: No_10_At_Ca'gobêns'_Village.krn
!!!REG: Great_Lakes
!!!LANG: Non-Tone
!!!LING_GROUP: Algonquin
!!!SOCIAL_FUNCTION: songs of war
**kern	**kern
*staff2	*staff1
*clefF4	*clefF4
*k[]	*k[]
*M3/4	*M3/4
4.r	8c\
.	4e\
=1	=1
8GG^/L	4.c\
8GG/J	.
8GG^/L	.
8GG/J	8A\
8GG^/L	4c\
8GG/J	.
=2||	=2||
*M2/4	*M2/4
2r	4.A\
.	[8E\
=3	=3
2r	8.E\L]
.	16e\Jk
.	4e\
=4||	=4||
*M3/4	*M3/4
2.r	4.c\
.	8A\
.	4c\
=5||	=5||
*M2/4	*M2/4
2r	2A\
=6	=6
2r	8A\L
.	8A\J
.	8.A;\L
.	16A\Jk
=7	=7
2r	4A\
.	8A\L
.	8A\J
=8	=8
2r	12c\L
.	8c\
.	24c\Jk
.	4A\
=9	=9
2r	8A\L
.	8A\J
.	8A\L
.	8A\J
=10	=10
2r	4E\
.	8D/L
.	[8C/J
=11	=11
2r	4C;/]
.	8.A\L
.	16A\Jk
=12	=12
2r	4.A\
.	8c\
=13	=13
2r	4c\
.	4A\
=14	=14
2r	4E\
.	8D/L
.	8C/J
=15	=15
2r	4E\
.	[4C/
=16	=16
2r	8C/L]
.	8E/J
.	4C/
=17	=17
2r	4AA/
.	4AA/
==	==
*-	*-
